X: 12
T: Cotillon XII.    le Rou\"et \`a filer.
%R: reel
B: J. Longman "XXIV New Cotillons or French Dances", London 1770 #12
F: http://http://www.vwml.org/browse/browse-collections-dance-tune-books/browse-longmans 2015-2-22
Z: 2015 John Chambers <jc:trillian.mit.edu>
M: C
L: 1/8
K: D
% - - - - - - - - - - - - - - - - - - - - - - - - - - - - -
%Voice 1 is formatted for a small scale.
V: 1 clef=treble
|:\
(FA)(df) (af)(ed) | (ce)(cA) {A}G2(FE) |\
(FA)(df) (af)(ed) | (ba)(Ac) d2D2 :|\
|:\
d(f/g/) (af) (bg)(ec) | d(f/g/) (af) (ec)(BA) |
d(f/g/) (af) (bg)(eb) | (ag)(fe) d2D2 :|\
|:\
(FA)(FA) (GB)(GB) | (Ec)(Ec) d(f/g/) aA |\
(FA)(FA) (GB)(GB) |
(Ec)(Ec) d2D2 :|\
|:\
(fd) (f/g/a) (ec) (e/f/g) | (fd) (f/g/a) (ge)(cA) |\
(fd) (f/g/a) (ec) (e/f/g) | (fd)(Ac) d2D2 :|
% - - - - - - - - - - - - - - - - - - - - - - - - - - - - -
%Voice 2 preserves the original staff breaks.
V: 2 clef=bass middle=d
|:\
d4 f2g2 | a4 A2c2 | d4 f2g2 | a2A2 d4 :||: d2f2 g2a2 |
d2f2 a2c2 | d2f2 g3e | a2A2 d4 :||: D2d2 G2g2 | A2a2 d2f2 | D2d2
G2g2 | A2a2 d4 :||: d2d'2 c'2a2 | d'2d2 A4 | d2d'2 c'2a2 | d'2a2 d4 :|
% - - - - - - - - - - Dance description - - - - - - - - - -
%%begintext align
%%    All round: first four turn the other four: change places, L' Allemande, turn to
%% the other four again, the other four do the same: Every Gentlman [sic] turn his Partner
%% into her Place.
%%endtext
%%text See the title page for the set of 9 "changes" for this dance.
